public/global/img/svg/icon_service_2.svg

<svg xmlns="http://www.w3.org/2000/svg" width="100" height="100" viewBox="0 0 100 100">
    <defs>
        <style>.cls-1{fill:#434242;fill-rule:evenodd}</style>
    </defs>
    <path id="_" data-name="" class="cls-1"
          d="M79.95 20Q92 32.1 92.5 50.2 92 68.3 79.95 80.35T49.7 92.9q-18.1-.5-30.15-12.5T7 50.2Q7.5 32 19.55 19.95T49.7 7.4q18.2.5 30.25 12.6zm9.55 31.6H77a58.628 58.628 0 0 1-3 17.8h10.5a39.941 39.941 0 0 0 5-17.8zm-78 9.35A41.668 41.668 0 0 0 15 69.4h10.4a65.389 65.389 0 0 1-2.9-17.8H10a38.81 38.81 0 0 0 1.5 9.35zm0-21.5A38.543 38.543 0 0 0 10 48.7h12.5a57.844 57.844 0 0 1 3-17.8H15a44.275 44.275 0 0 0-3.5 8.55zm62.6 9.25a57.94 57.94 0 0 0-3-17.8h-12q.5 4.5.75 9.05t.35 8.75h13.9zm-16.8 0q-.2-10.2-1-17.8H43.2a167.229 167.229 0 0 0-1 17.8h15.1zm-15.1 2.9a167.2 167.2 0 0 0 1 17.8h13.1q.8-7.6 1-17.8H42.2zm27.9-23.5A35.628 35.628 0 0 0 63.3 17a21.315 21.315 0 0 0-9.1-6 32.051 32.051 0 0 1 2.75 7.3 79.483 79.483 0 0 1 1.85 9.8h11.3zM52.85 14.8q-1.751-4.5-3.1-4.5t-3.1 4.5a65.107 65.107 0 0 0-3.05 13.3h12.3a65.324 65.324 0 0 0-3.05-13.3zm-10.3 3.5A31.9 31.9 0 0 1 45.3 11a21.3 21.3 0 0 0-9.1 6 35.6 35.6 0 0 0-6.8 11.1h11.3a78.889 78.889 0 0 1 1.85-9.8zM28.4 30.9a57.844 57.844 0 0 0-3 17.8h13.9q.1-4.2.35-8.75t.75-9.05h-12zm0 38.5h12q-.5-4.5-.75-9.05t-.35-8.75H25.4a57.146 57.146 0 0 0 3 17.8zm1 2.9a35.818 35.818 0 0 0 6.8 11 21.3 21.3 0 0 0 9.1 6 29.736 29.736 0 0 1-2.75-7.25 81.55 81.55 0 0 1-1.85-9.75H29.4zm17.25 13.25q1.75 4.55 3.1 4.55t3.1-4.55A66.357 66.357 0 0 0 55.9 72.3H43.6a66.133 66.133 0 0 0 3.05 13.25zm10.3-3.5a29.867 29.867 0 0 1-2.75 7.25 21.315 21.315 0 0 0 9.1-6 35.848 35.848 0 0 0 6.8-11H58.8a82.191 82.191 0 0 1-1.85 9.75zM71.1 69.4a57.24 57.24 0 0 0 3-17.8H60.2q-.1 4.2-.35 8.75t-.75 9.05h12zm18.4-20.7a40.448 40.448 0 0 0-5-17.8H74a57.94 57.94 0 0 1 3 17.8h12.5zM74.05 18.65A40.261 40.261 0 0 0 62.5 12.6a33.549 33.549 0 0 1 5.9 6.6 41.429 41.429 0 0 1 4.6 8.9h9.9a37.341 37.341 0 0 0-8.85-9.45zm-48.6 0a37.341 37.341 0 0 0-8.85 9.45h9.8a44.8 44.8 0 0 1 4.7-8.9 33.5 33.5 0 0 1 5.9-6.6 40.261 40.261 0 0 0-11.55 6.05zm0 63A42.244 42.244 0 0 0 37 87.8a32.884 32.884 0 0 1-5.9-6.65 47.233 47.233 0 0 1-4.7-8.85h-9.8a38.018 38.018 0 0 0 8.85 9.35zm48.6 0a38.018 38.018 0 0 0 8.85-9.35H73a43.448 43.448 0 0 1-4.6 8.85 32.932 32.932 0 0 1-5.9 6.65 42.244 42.244 0 0 0 11.55-6.15z"/>
</svg>

<svg xmlns="http://www.w3.org/2000/svg" width="100" height="100" viewBox="0 0 100 100">
    <metadata><?xpacket begin="﻿" id="W5M0MpCehiHzreSzNTczkc9d"?>
        <x:xmpmeta xmlns:x="adobe:ns:meta/" x:xmptk="Adobe XMP Core 5.6-c138 79.159824, 2016/09/14-01:09:01        ">
            <rdf:RDF xmlns:rdf="http://www.w3.org/1999/02/22-rdf-syntax-ns#">
                <rdf:Description rdf:about=""/>
            </rdf:RDF>
        </x:xmpmeta>


        <?xpacket end="w"?>
    </metadata>
    <defs>
        <style>
            .cls-1 {
            fill: #434242;
            fill-rule: evenodd;
            }
        </style>
    </defs>
    <path id="_" data-name="" class="cls-1"
          d="M79.95,20Q92,32.1,92.5,50.2,92,68.3,79.95,80.35T49.7,92.9q-18.1-.5-30.15-12.5T7,50.2Q7.5,32,19.55,19.95T49.7,7.4Q67.9,7.9,79.95,20ZM89.5,51.6H77a58.628,58.628,0,0,1-3,17.8H84.5a39.941,39.941,0,0,0,5-17.8h0Zm-78,9.35A41.668,41.668,0,0,0,15,69.4H25.4a65.389,65.389,0,0,1-2.9-17.8H10A38.81,38.81,0,0,0,11.5,60.95Zm0-21.5A38.543,38.543,0,0,0,10,48.7H22.5a57.844,57.844,0,0,1,3-17.8H15A44.275,44.275,0,0,0,11.5,39.45ZM74.1,48.7a57.94,57.94,0,0,0-3-17.8h-12q0.5,4.5.75,9.05T60.2,48.7H74.1Zm-16.8,0q-0.2-10.2-1-17.8H43.2a167.229,167.229,0,0,0-1,17.8H57.3ZM42.2,51.6a167.2,167.2,0,0,0,1,17.8H56.3q0.8-7.6,1-17.8H42.2ZM70.1,28.1A35.628,35.628,0,0,0,63.3,17a21.315,21.315,0,0,0-9.1-6,32.051,32.051,0,0,1,2.75,7.3,79.483,79.483,0,0,1,1.85,9.8H70.1ZM52.85,14.8q-1.751-4.5-3.1-4.5t-3.1,4.5A65.107,65.107,0,0,0,43.6,28.1H55.9A65.324,65.324,0,0,0,52.85,14.8Zm-10.3,3.5A31.9,31.9,0,0,1,45.3,11a21.3,21.3,0,0,0-9.1,6,35.6,35.6,0,0,0-6.8,11.1H40.7A78.889,78.889,0,0,1,42.55,18.3ZM28.4,30.9a57.844,57.844,0,0,0-3,17.8H39.3q0.1-4.2.35-8.75T40.4,30.9h-12Zm0,38.5h12q-0.5-4.5-.75-9.05T39.3,51.6H25.4a57.146,57.146,0,0,0,3,17.8h0Zm1,2.9a35.818,35.818,0,0,0,6.8,11,21.3,21.3,0,0,0,9.1,6,29.736,29.736,0,0,1-2.75-7.25A81.55,81.55,0,0,1,40.7,72.3H29.4ZM46.65,85.55Q48.4,90.1,49.75,90.1t3.1-4.55A66.357,66.357,0,0,0,55.9,72.3H43.6A66.133,66.133,0,0,0,46.65,85.55Zm10.3-3.5A29.867,29.867,0,0,1,54.2,89.3a21.315,21.315,0,0,0,9.1-6,35.848,35.848,0,0,0,6.8-11H58.8A82.191,82.191,0,0,1,56.95,82.05ZM71.1,69.4a57.24,57.24,0,0,0,3-17.8H60.2q-0.1,4.2-.35,8.75T59.1,69.4h12ZM89.5,48.7a40.448,40.448,0,0,0-5-17.8H74a57.94,57.94,0,0,1,3,17.8H89.5ZM74.05,18.65A40.261,40.261,0,0,0,62.5,12.6a33.549,33.549,0,0,1,5.9,6.6A41.429,41.429,0,0,1,73,28.1h9.9A37.341,37.341,0,0,0,74.05,18.65Zm-48.6,0A37.341,37.341,0,0,0,16.6,28.1h9.8a44.8,44.8,0,0,1,4.7-8.9A33.5,33.5,0,0,1,37,12.6,40.261,40.261,0,0,0,25.45,18.65Zm0,63A42.244,42.244,0,0,0,37,87.8a32.884,32.884,0,0,1-5.9-6.65,47.233,47.233,0,0,1-4.7-8.85H16.6A38.018,38.018,0,0,0,25.45,81.65Zm48.6,0A38.018,38.018,0,0,0,82.9,72.3H73a43.448,43.448,0,0,1-4.6,8.85,32.932,32.932,0,0,1-5.9,6.65A42.244,42.244,0,0,0,74.05,81.65Z"/>
</svg>
